icons/table-cell-merge.svg

<svg width="14" height="14" xmlns="http://www.w3.org/2000/svg" fill="currentColor"><path d="M4 2H2v2h2V2Zm2 0v2h2V2h2v2h2V2H6Zm6 4H6v6h6V6Zm-8 6v-2H2v2h2ZM2 8h2V6H2v2Zm0-8h10a2 2 0 0 1 2 2v10a2 2 0 0 1-2 2H2a2 2 0 0 1-2-2V2a2 2 0 0 1 2-2Z"/></svg>

<svg width="14" height="14" xmlns="http://www.w3.org/2000/svg"><path d="M4,2 L2,2 L2,4 L4,4 L4,2 Z M6,2 L6,4 L8,4 L8,2 L10,2 L10,4 L12,4 L12,2 L6,2 Z M12,6 L6,6 L6,12 L12,12 L12,6 Z M4,12 L4,10 L2,10 L2,12 L4,12 Z M2,8 L4,8 L4,6 L2,6 L2,8 Z M2,0 L12,0 C13.1045695,0 14,0.8954305 14,2 L14,12 C14,13.1045695 13.1045695,14 12,14 L2,14 C0.8954305,14 0,13.1045695 0,12 L0,2 C0,0.8954305 0.8954305,0 2,0 Z"/></svg>
